X: 4263
T: The GREY BUCK
%R: jig
B: James Kerr "Merry Melodies" v.4 p.28 #263
Z: 2016 John Chambers <jc:trillian.mit.edu>
M: 6/8
L: 1/8
K: A
a |\
eAe edB | dBA A2=g | =d=Gd dBA | BA=G G2=g |\
fed ef=g | aAa ef2 | =g2e dBd | e2A A2 :|
|: g |\
aAa efg | aAa e2f | =geg def | =geg d2g |\
aAa efg | aAa e2f | =g2e dBd | e2A A2 :|

%%sep 1 1 500
%%sep 1 1 500

